X:37
T:Because He Was a Bonny Lad
R:Reel
B:The Athole Collection
M:C|
L:1/8
K:A
e|c>BA>a (f/g/a (ec|d>fe>c B/B/B ~B>e|c>BA>a (f/g/a (e>c|dfec A/A/A A:|
e|cBAc defd|cAec B/B/B (Bd|cBAc defg|agac A/A/A (Ae|cAeA fA eA|
cAec B/B/B (Bg|afge efec|dfec A/A/A A||

